X:1
T:Pleasant Pastures, 87.87.87
T:Pleasant Pastures, 87.87.87
T:Anonymous, before 1902
T:Public Domain Courtesy of the Cyber Hymnal™
C:Anonymous, before 1902
Z:Public Domain
Z:Courtesy of the Cyber Hymnal™
%%score 1 ( 2 3 )
L:1/8
Q:1/4=100
M:3/4
K:C
V:1 treble 
V:2 bass 
V:3 bass 
V:1
 [CE][DF] | [EG]3 [Ec] [Ge][Ec] | [Ec]2 [DB]2 [B,D][CE] | [DF]3 [DB] [Fd][DF] | %4
 [DF]2 [CE]2 [EG][Ec] | [GB]2 [FA]2 [Ac][FA] | [^D^F]2 [EG]2 [Ec][=F^d] | [Ge]3 [Ec] [Fd][EB] | %8
 [Ec]2 z2 | [Ec][GB] | [FA]2 [FA]2 [Ac][FA] | [EG]2 [CE]2 [Ec][Fd] | [Ee]3 [Ec] [Fd][DB] | [Ec]4 |] %14
V:2
 [C,G,][C,G,] | [C,G,]3 [C,G,] [C,G,][C,G,] | G,2 G,2 G,G, | G,3 G, G,[B,,G,] | %4
 [C,G,]4 [C,C][C,C] | [F,C]2 [F,C]2 [F,C][A,C] | C2 [C,C]2 [C,C][C,C] | [C,C]3 [C,C] [G,B,]G, | %8
 [C,G,]2 z2 | [C,C][E,C] | [F,C]2 [F,C]2 [F,C][A,C] | C2 C2 C[G,B,] | [C,C]3 [C,C] G,G, | %13
 [C,G,]4 |] %14
V:3
 x2 | x6 | G,2 G,2 G,G, | G,3 G, G, x | x6 | x6 | C2 x4 | x5 G, | x4 | x2 | x6 | C2 C2 C x | %12
 x4 G,G, | x4 |] %14

